X: 10822
M: 6/8
L: 1/8
K: D
|:\
|:\
dfd ecA | {Bc}d2F E2D | dfd ecA | TB3 {AB}d2A |\
dfd ecA | {Bc}d2F E2D | D2A AFA | B3 d2A |
dfd ecA | B>cd AFD | dfd ecA | TB3 {AB}d2f/g/ |\
agf edc | d>cB AFA | DFA AFA | BAB Hd3 |]



